!!!COM: Hugo Wolf
!!!CNT: Deutscher
!!!TXO: Deutsche 
!!!OTL: Mausfallen Spru2chlein
!!!OPR: Sechs Lieder fu2r eine Frauenstimme
!!!ONM: No. 6
!!!ODT: 1882/
!!!LYR: Moericke
!!!ENC: Brian Bice
!!!YOR: 65 Songs for voice and piano, International Music Company, 1960
!!NB: Vocal melody and text only encoded.
**kern	**silbe
*clefG2	*
*k[b-]	*
*M2/4	*
*tb16	*
=1	=1
4r	.
.	.
.	.
.	.
{8.dd	{Klei-
.	.
.	.
16dd	-ne
=2	=2
8ff	Ga2-
.	.
8a	-ste,
.	.
8.dd	klei-
.	.
.	.
16g	-nes
=3	=3
4cc}	Haus,}
.	.
.	.
.	.
{8.a	{lie-
.	.
.	.
16a	-be
=4	=4
16cc	Ma2u-
16b-	|
8b-	-sin
.	.
8.ee	o-
.	.
.	.
16dd	-der
=5	=5
4.cc}	Maus,}
.	.
.	.
.	.
.	.
.	.
{8.cc	{stel-
.	.
.	.
16cc	-le
=6	=6
8cc#	dich
.	.
8dd	nur
.	.
8gg	keck-
.	.
8dd	-lich
.	.
=7	=7
4ccn}	ein}
.	.
.	.
.	.
{8.ff	{heu-
.	.
.	.
16dd	-te
=8	=8
8ee	Nacht
.	.
8cc	bei
.	.
8dd	Mon-
.	.
8ff	-den-
.	.
=9	=9
4ee	-schein,
.	.
.	.
.	.
8dd	Mon-
.	.
8ff	-den-
.	.
=10	=10
4ee	-schein,
.	.
.	.
.	.
8dd	Mon-
.	.
8ff	-den-
.	.
=11	=11
[2ee	-schein!
.	.
.	.
.	.
.	.
.	.
.	.
.	.
=12	=12
2ee]}	|}
.	.
.	.
.	.
.	.
.	.
.	.
.	.
=13	=13
8r	.
.	.
{8dd	{Mach
.	.
8dd	a-
.	.
16dd	-ber
16dd	die
=14	=14
8dd	Tu2r
.	.
8dd	fein
.	.
12dd	hin-
.	.
12dd	-ter
12dd	dir
=15	=15
4dd}	zu,}
.	.
.	.
.	.
8r	.
.	.
{8gg	{ho2rst
.	.
=16	=16
8cc	du?
.	.
8r	.
.	.
8r	.
.	.
8gg	ho2rst
.	.
=17	=17
8cc}	du?}
.	.
8r	.
.	.
4r	.
.	.
.	.
.	.
=18	=18
8r	.
.	.
{16cc	{Da-
16cc	-bei
12ff	hu2-
.	.
12ee	-te
12dd	dein
=19	=19
8cc#	Schwa2nz-
.	.
8ee}	-chen!}
.	.
4r	.
.	.
.	.
.	.
=20	=20
8r	.
.	.
{8ee	{ho2rst
.	.
8bn	du?
.	.
8r	.
.	.
=21	=21
8r	.
.	.
8ee	ho2rst
.	.
8bn	du?
.	.
16r	.
16bn	Dein
=22	=22
16ee	Schwa2nz-
16bn}	-chen!}
8r	.
.	.
4r	.
.	.
.	.
.	.
=25	=25
4r	.
.	.
.	.
.	.
8r	.
.	.
{8dd	{Nach
.	.
=26	=26
8cc	Ti-
.	.
8a	-sche
.	.
8.gg	sin-
.	.
.	.
16ff	-gen
=27	=27
4ee}	wir,}
.	.
.	.
.	.
8r	.
.	.
{8dd	{nach
.	.
=28	=28
8cc	Ti-
.	.
8a	-sche
.	.
8.gg	sprin-
.	.
.	.
16ff	-gen
=29	=29
8dd}	wir}
.	.
{8ff	{und
.	.
8ee	ma-
.	.
16dd	-chen
16dd	ein
=30	=30
8cc	Ta2nz-
.	.
16ff	-chen,
16dd	|
8r	.
.	.
8b-	ein
.	.
=31	=31
8a	Ta2nz-
.	.
16dd	-chen!
16b-}	|}
4r	.
.	.
.	.
.	.
=32	=32
8r	.
.	.
{8d-	{Witt
.	.
8d-	witt!
.	.
8r	.
.	.
=33	=33
8r	.
.	.
8d-	Witt
.	.
8d-}	witt!}
.	.
8r	.
.	.
=34	=34
8r	.
.	.
{16cc	{mei-
16cc	-ne
16ddn	al-
16cc	-te
16ff	Ka-
16cc	-tze
=35	=35
*M5/8	*
8a	tanzt
.	.
8dd	wahr
.	.
16b-	schein
16a	lich
8g}	mit,}
.	.
{8ff	{ho2rst
.	.
=36	=36
*M2/4	*
8g	du?
.	.
8r	.
.	.
8r	.
.	.
8ff	ho2rst
.	.
=37	=37
4g	du?
.	.
.	.
.	.
4r	.
.	.
.	.
.	.
=38	=38
8r	.
.	.
8ff	ho2rst
.	.
8r	.
.	.
8g}	du?}
.	.
*-	*-
